public/img/workforce.svg

<svg width="48" height="48" viewBox="0 0 48 48" fill="none" xmlns="http://www.w3.org/2000/svg">
<rect width="48" height="48" rx="4" fill="#F4F6FC"/>
<path d="M24.375 12.1406L38.625 21.1406C39 21.375 39.0938 21.8438 38.8594 22.1719C38.625 22.5469 38.1562 22.6406 37.8281 22.4062L24 13.6406L10.125 22.4062C9.79688 22.6406 9.32812 22.5 9.09375 22.1719C8.85938 21.7969 8.95312 21.375 9.32812 21.1406L23.5781 12.1406C23.8125 12 24.1406 12 24.375 12.1406ZM24.75 21C24.75 20.625 24.375 20.25 24 20.25C23.5781 20.25 23.25 20.625 23.25 21C23.25 21.4219 23.5781 21.75 24 21.75C24.375 21.75 24.75 21.4219 24.75 21ZM21.75 21C21.75 20.2031 22.1719 19.5 22.875 19.0781C23.5312 18.6562 24.4219 18.6562 25.125 19.0781C25.7812 19.5 26.25 20.2031 26.25 21C26.25 21.8438 25.7812 22.5469 25.125 22.9688C24.4219 23.3906 23.5312 23.3906 22.875 22.9688C22.1719 22.5469 21.75 21.8438 21.75 21ZM22.875 30.75H25.125V25.5938C24.9375 25.5469 24.75 25.5 24.5625 25.5H23.3906C23.2031 25.5 23.0156 25.5469 22.875 25.5938V30.75ZM28.5938 30.0469L26.625 26.8125V30.75C26.625 31.5938 25.9219 32.25 25.125 32.25H22.875C22.0312 32.25 21.375 31.5938 21.375 30.75V26.8125L19.3594 30.0469C19.3594 30.0469 19.3594 30.0469 19.3594 30.0938C19.4062 30.1406 19.4531 30.2344 19.5 30.3281L21.6094 33.75C21.8438 34.125 21.75 34.5469 21.375 34.7812C21.0469 35.0156 20.5781 34.875 20.3438 34.5469L18.375 31.3125V34.5C18.375 35.3438 17.6719 36 16.875 36H14.625C13.7812 36 13.125 35.3438 13.125 34.5V31.3125L11.1094 34.5469C10.9219 34.875 10.4531 35.0156 10.0781 34.7812C9.75 34.5469 9.60938 34.125 9.84375 33.75L11.9531 30.3281C12.6562 29.2031 13.875 28.5 15.1406 28.5H16.3125C16.9688 28.5 17.6719 28.6875 18.2344 29.0625L20.2031 25.8281C20.9062 24.7031 22.125 24 23.3906 24H24.5625C25.875 24 27.0469 24.7031 27.75 25.8281L29.7656 29.0625C30.3281 28.6875 30.9844 28.5 31.6406 28.5H32.8125C34.125 28.5 35.2969 29.2031 36 30.3281L38.1094 33.75C38.3438 34.125 38.25 34.5469 37.875 34.7812C37.5469 35.0156 37.0781 34.875 36.8438 34.5469L34.875 31.3125V34.5C34.875 35.3438 34.1719 36 33.375 36H31.125C30.2812 36 29.625 35.3438 29.625 34.5V31.3125L27.6094 34.5469C27.4219 34.875 26.9531 35.0156 26.5781 34.7812C26.25 34.5469 26.1094 34.125 26.3438 33.75L28.4531 30.3281C28.5 30.2344 28.5469 30.1406 28.6406 30.0938C28.5938 30.0469 28.5938 30.0469 28.5938 30.0469ZM15.75 26.25C16.125 26.25 16.5 25.9219 16.5 25.5C16.5 25.125 16.125 24.75 15.75 24.75C15.3281 24.75 15 25.125 15 25.5C15 25.9219 15.3281 26.25 15.75 26.25ZM15.75 23.25C16.5469 23.25 17.25 23.7188 17.6719 24.375C18.0938 25.0781 18.0938 25.9688 17.6719 26.625C17.25 27.3281 16.5469 27.75 15.75 27.75C14.9062 27.75 14.2031 27.3281 13.7812 26.625C13.3594 25.9688 13.3594 25.0781 13.7812 24.375C14.2031 23.7188 14.9062 23.25 15.75 23.25ZM14.625 30.0938V34.5H16.875V30.0938C16.6875 30.0469 16.5 30 16.3125 30H15.1406C14.9531 30 14.7656 30.0469 14.625 30.0938ZM33 25.5C33 25.125 32.625 24.75 32.25 24.75C31.8281 24.75 31.5 25.125 31.5 25.5C31.5 25.9219 31.8281 26.25 32.25 26.25C32.625 26.25 33 25.9219 33 25.5ZM30 25.5C30 24.7031 30.4219 24 31.125 23.5781C31.7812 23.1562 32.6719 23.1562 33.375 23.5781C34.0312 24 34.5 24.7031 34.5 25.5C34.5 26.3438 34.0312 27.0469 33.375 27.4688C32.6719 27.8906 31.7812 27.8906 31.125 27.4688C30.4219 27.0469 30 26.3438 30 25.5ZM31.125 34.5H33.375V30.0938C33.1875 30.0469 33 30 32.8125 30H31.6406C31.4531 30 31.2656 30.0469 31.125 30.0938V34.5Z" fill="#1A75BB"/>
</svg>

<svg xmlns="http://www.w3.org/2000/svg" width="48" height="48" fill="none"><rect width="48" height="48" fill="#F4F6FC" rx="4"/><path fill="#1A75BB" d="m24.375 12.14 14.25 9c.375.235.469.704.234 1.032-.234.375-.703.469-1.03.234L24 13.641l-13.875 8.765c-.328.235-.797.094-1.031-.234-.235-.375-.14-.797.234-1.031l14.25-9a.8.8 0 0 1 .797 0M24.75 21c0-.375-.375-.75-.75-.75-.422 0-.75.375-.75.75 0 .422.328.75.75.75.375 0 .75-.328.75-.75m-3 0c0-.797.422-1.5 1.125-1.922.656-.422 1.547-.422 2.25 0 .656.422 1.125 1.125 1.125 1.922 0 .844-.469 1.547-1.125 1.969-.703.422-1.594.422-2.25 0-.703-.422-1.125-1.125-1.125-1.969m1.125 9.75h2.25v-5.156c-.187-.047-.375-.094-.562-.094H23.39c-.188 0-.375.047-.516.094zm5.719-.703-1.969-3.235v3.938c0 .844-.703 1.5-1.5 1.5h-2.25a1.48 1.48 0 0 1-1.5-1.5v-3.937l-2.016 3.234v.047c.047.047.094.14.141.234l2.11 3.422c.234.375.14.797-.235 1.031-.328.235-.797.094-1.031-.234l-1.969-3.234V34.5c0 .844-.703 1.5-1.5 1.5h-2.25a1.48 1.48 0 0 1-1.5-1.5v-3.187l-2.016 3.234c-.187.328-.656.469-1.03.234-.329-.234-.47-.656-.235-1.031l2.11-3.422c.702-1.125 1.921-1.828 3.187-1.828h1.172c.656 0 1.359.188 1.921.563l1.97-3.235C20.905 24.703 22.124 24 23.39 24h1.172c1.312 0 2.484.703 3.187 1.828l2.016 3.235a3.4 3.4 0 0 1 1.875-.563h1.172c1.312 0 2.484.703 3.187 1.828l2.11 3.422c.234.375.14.797-.235 1.031-.328.235-.797.094-1.031-.234l-1.969-3.234V34.5c0 .844-.703 1.5-1.5 1.5h-2.25a1.48 1.48 0 0 1-1.5-1.5v-3.187l-2.016 3.234c-.187.328-.656.469-1.03.234-.329-.234-.47-.656-.235-1.031l2.11-3.422c.046-.094.093-.187.187-.234zM15.75 26.25c.375 0 .75-.328.75-.75 0-.375-.375-.75-.75-.75-.422 0-.75.375-.75.75 0 .422.328.75.75.75m0-3c.797 0 1.5.469 1.922 1.125.422.703.422 1.594 0 2.25-.422.703-1.125 1.125-1.922 1.125-.844 0-1.547-.422-1.969-1.125-.422-.656-.422-1.547 0-2.25.422-.656 1.125-1.125 1.969-1.125m-1.125 6.844V34.5h2.25v-4.406c-.187-.047-.375-.094-.562-.094H15.14c-.188 0-.375.047-.516.094M33 25.5c0-.375-.375-.75-.75-.75-.422 0-.75.375-.75.75 0 .422.328.75.75.75.375 0 .75-.328.75-.75m-3 0c0-.797.422-1.5 1.125-1.922.656-.422 1.547-.422 2.25 0C34.031 24 34.5 24.703 34.5 25.5c0 .844-.469 1.547-1.125 1.969-.703.422-1.594.422-2.25 0C30.422 27.047 30 26.344 30 25.5m1.125 9h2.25v-4.406C33.188 30.047 33 30 32.813 30H31.64c-.188 0-.375.047-.516.094z"/></svg>
